X: 4059
T: Blessed Margaret Pole
R: jig
M: 6/8
K: Eminor
EBA GFE|FED E3|EBA GFE|e2d B3|
EBA GFE|FED G2A|BdB AGF|E3 E3:|
aef gfe|f2d B3|aef g2a|b2a g3|
aef gfe|f2d B3|BdB AGF|E3 E3:|

